X:12524
T:Over the water to Charlie
R:Jig
O:Scotland
M:6/8
K:D
DFA AFA| Bcd AFA| DFA AFA| B2c d3|\
DFA AFA| Bcd AFA| fed edc| B2c d3:|
|:fed edc| Bcd AFA| fed edc| B2e e3|\
fed edc| Bcd AFA| DFA AFA| B2c d3:|


